static/img/svg/bxs-timer.svg

<svg xmlns="http://www.w3.org/2000/svg" width="24" height="24"><path fill="none" d="M14 9h2v5h-2z"/><path d="M15 6c-3.859 0-7 3.14-7 7s3.141 7 7 7 7-3.14 7-7-3.141-7-7-7zm1 8h-2V9h2v5zM12 2h6v2h-6zM3 8h4v2H3zM3 16h4v2H3zM2 12h3.99v2H2zM21.293 6.707l-2-2 1.414-1.414 2 2z"/></svg>

<svg xmlns="http://www.w3.org/2000/svg" width="24" height="24" viewBox="0 0 24 24"><path d="M15 6c-3.859 0-7 3.14-7 7s3.141 7 7 7 7-3.14 7-7S18.859 6 15 6zM16 14h-2v-4h2V14zM12 2H18V4H12zM3 8H7V10H3zM3 16H7V18H3zM2 12H5.99V14H2z"/><path transform="rotate(-134.999 21 5)" d="M19.586 4H22.413999999999998V6H19.586z"/></svg>
